svgs/solid/tty.svg

<svg xmlns="http://www.w3.org/2000/svg" viewBox="0 0 512 512"><!-- Font Awesome Pro 5.15.1 by @fontawesome - https://fontawesome.com License - https://fontawesome.com/license (Commercial License) --><path d="M5.37 103.822c138.532-138.532 362.936-138.326 501.262 0 6.078 6.078 7.074 15.496 2.583 22.681l-43.214 69.138a18.332 18.332 0 0 1-22.356 7.305l-86.422-34.569a18.335 18.335 0 0 1-11.434-18.846L351.741 90c-62.145-22.454-130.636-21.986-191.483 0l5.953 59.532a18.331 18.331 0 0 1-11.434 18.846l-86.423 34.568a18.334 18.334 0 0 1-22.356-7.305L2.787 126.502a18.333 18.333 0 0 1 2.583-22.68zM96 308v-40c0-6.627-5.373-12-12-12H44c-6.627 0-12 5.373-12 12v40c0 6.627 5.373 12 12 12h40c6.627 0 12-5.373 12-12zm96 0v-40c0-6.627-5.373-12-12-12h-40c-6.627 0-12 5.373-12 12v40c0 6.627 5.373 12 12 12h40c6.627 0 12-5.373 12-12zm96 0v-40c0-6.627-5.373-12-12-12h-40c-6.627 0-12 5.373-12 12v40c0 6.627 5.373 12 12 12h40c6.627 0 12-5.373 12-12zm96 0v-40c0-6.627-5.373-12-12-12h-40c-6.627 0-12 5.373-12 12v40c0 6.627 5.373 12 12 12h40c6.627 0 12-5.373 12-12zm96 0v-40c0-6.627-5.373-12-12-12h-40c-6.627 0-12 5.373-12 12v40c0 6.627 5.373 12 12 12h40c6.627 0 12-5.373 12-12zm-336 96v-40c0-6.627-5.373-12-12-12H92c-6.627 0-12 5.373-12 12v40c0 6.627 5.373 12 12 12h40c6.627 0 12-5.373 12-12zm96 0v-40c0-6.627-5.373-12-12-12h-40c-6.627 0-12 5.373-12 12v40c0 6.627 5.373 12 12 12h40c6.627 0 12-5.373 12-12zm96 0v-40c0-6.627-5.373-12-12-12h-40c-6.627 0-12 5.373-12 12v40c0 6.627 5.373 12 12 12h40c6.627 0 12-5.373 12-12zm96 0v-40c0-6.627-5.373-12-12-12h-40c-6.627 0-12 5.373-12 12v40c0 6.627 5.373 12 12 12h40c6.627 0 12-5.373 12-12zM96 500v-40c0-6.627-5.373-12-12-12H44c-6.627 0-12 5.373-12 12v40c0 6.627 5.373 12 12 12h40c6.627 0 12-5.373 12-12zm288 0v-40c0-6.627-5.373-12-12-12H140c-6.627 0-12 5.373-12 12v40c0 6.627 5.373 12 12 12h232c6.627 0 12-5.373 12-12zm96 0v-40c0-6.627-5.373-12-12-12h-40c-6.627 0-12 5.373-12 12v40c0 6.627 5.373 12 12 12h40c6.627 0 12-5.373 12-12z"/></svg>

<svg xmlns="http://www.w3.org/2000/svg" viewBox="0 0 512 512"><!-- Font Awesome Pro 6.0.0-alpha2 by @fontawesome - https://fontawesome.com License - https://fontawesome.com/license (Commercial License) --><path d="M271.963 364V404C271.963 410.625 277.338 416 283.963 416H323.963C330.588 416 335.963 410.625 335.963 404V364C335.963 357.375 330.588 352 323.963 352H283.963C277.338 352 271.963 357.375 271.963 364ZM367.963 364V404C367.963 410.625 373.338 416 379.963 416H419.963C426.588 416 431.963 410.625 431.963 404V364C431.963 357.375 426.588 352 419.963 352H379.963C373.338 352 367.963 357.375 367.963 364ZM275.963 256H235.963C229.338 256 223.963 261.375 223.963 268V308C223.963 314.625 229.338 320 235.963 320H275.963C282.588 320 287.963 314.625 287.963 308V268C287.963 261.375 282.588 256 275.963 256ZM83.963 448H43.963C37.338 448 31.963 453.375 31.963 460V500C31.963 506.625 37.338 512 43.963 512H83.963C90.588 512 95.963 506.625 95.963 500V460C95.963 453.375 90.588 448 83.963 448ZM175.963 364V404C175.963 410.625 181.338 416 187.963 416H227.963C234.588 416 239.963 410.625 239.963 404V364C239.963 357.375 234.588 352 227.963 352H187.963C181.338 352 175.963 357.375 175.963 364ZM371.963 256H331.963C325.338 256 319.963 261.375 319.963 268V308C319.963 314.625 325.338 320 331.963 320H371.963C378.588 320 383.963 314.625 383.963 308V268C383.963 261.375 378.588 256 371.963 256ZM467.963 256H427.963C421.338 256 415.963 261.375 415.963 268V308C415.963 314.625 421.338 320 427.963 320H467.963C474.588 320 479.963 314.625 479.963 308V268C479.963 261.375 474.588 256 467.963 256ZM371.963 448H139.963C133.338 448 127.963 453.375 127.963 460V500C127.963 506.625 133.338 512 139.963 512H371.963C378.588 512 383.963 506.625 383.963 500V460C383.963 453.375 378.588 448 371.963 448ZM179.963 256H139.963C133.338 256 127.963 261.375 127.963 268V308C127.963 314.625 133.338 320 139.963 320H179.963C186.588 320 191.963 314.625 191.963 308V268C191.963 261.375 186.588 256 179.963 256ZM467.963 448H427.963C421.338 448 415.963 453.375 415.963 460V500C415.963 506.625 421.338 512 427.963 512H467.963C474.588 512 479.963 506.625 479.963 500V460C479.963 453.375 474.588 448 467.963 448ZM79.963 364V404C79.963 410.625 85.338 416 91.963 416H131.963C138.588 416 143.963 410.625 143.963 404V364C143.963 357.375 138.588 352 131.963 352H91.963C85.338 352 79.963 357.375 79.963 364ZM83.963 256H43.963C37.338 256 31.963 261.375 31.963 268V308C31.963 314.625 37.338 320 43.963 320H83.963C90.588 320 95.963 314.625 95.963 308V268C95.963 261.375 90.588 256 83.963 256ZM504.91 102.938C367.664 -34.311 144.342 -34.318 7.08 102.945C-0.895 110.918 -2.289 123.16 3.695 132.684L45.861 200.15C52.002 209.994 64.353 214.049 75.234 209.799L159.619 176.049C169.533 172.053 175.627 161.961 174.556 151.334L169.26 98.057C225.412 78.885 286.664 78.895 342.84 98.074L337.527 151.318C336.389 161.91 342.535 172.104 352.498 176.049L436.824 209.773C447.654 214.076 460.023 209.951 466.129 200.176L508.312 132.691C514.289 123.16 512.894 110.918 504.91 102.938Z"/></svg>
